svg/z-search.svg

<svg width="17" height="18" viewBox="0 0 17 18" fill="none" xmlns="http://www.w3.org/2000/svg">
<path d="M11.5714 7.92857C11.5714 10.4096 9.55246 12.4286 7.07143 12.4286C4.5904 12.4286 2.57143 10.4096 2.57143 7.92857C2.57143 5.44754 4.5904 3.42857 7.07143 3.42857C9.55246 3.42857 11.5714 5.44754 11.5714 7.92857ZM16.7143 16.2857C16.7143 15.9442 16.5737 15.6127 16.3426 15.3817L12.8973 11.9364C13.7109 10.7612 14.1429 9.35491 14.1429 7.92857C14.1429 4.0212 10.9788 0.857142 7.07143 0.857142C3.16406 0.857142 0 4.0212 0 7.92857C0 11.8359 3.16406 15 7.07143 15C8.49777 15 9.90402 14.5681 11.0792 13.7545L14.5246 17.1897C14.7556 17.4308 15.0871 17.5714 15.4286 17.5714C16.1317 17.5714 16.7143 16.9888 16.7143 16.2857Z" fill="#B2D249"/>
</svg>

<svg width="17" height="18"><path d="M11.571 7.929c0 2.48-2.019 4.5-4.5 4.5a4.505 4.505 0 01-4.5-4.5c0-2.481 2.02-4.5 4.5-4.5 2.481 0 4.5 2.019 4.5 4.5zm5.143 8.357c0-.342-.14-.673-.371-.904l-3.446-3.446a7.055 7.055 0 001.246-4.007A7.069 7.069 0 007.07.857 7.069 7.069 0 000 7.93 7.069 7.069 0 007.071 15a7.055 7.055 0 004.008-1.245l3.446 3.435c.23.24.562.381.904.381.703 0 1.285-.582 1.285-1.285z"/></svg>
